X:1
T:Title
%%score { 1 | ( 2 3 ) }
L:1/8
Q:1/4=104
M:6/8
K:Eb
V:1 treble nm="Grand Piano"
V:2 bass 
V:3 bass 
V:1
 G2 G G2 [FA] | [GB]3 [GB]3 | [Gc]2 [G=B] [Gc]2 [_DG] | [DA]6 | [DF]2 [DF] [DF]2 [EG] | %5
w: Samuel~W.~Beazley * * *|||||
 [FA]3 [Ad]3 | [Ac]2 [GB] [GB]2 [FA] | G6 | G2 G G2 [FA] | [GB]3 [EB]3 | [=Ec]2 [E=B] [Ec]2 [EG] | %11
w: ||||||
 [FA]6 | [Fd]2 [Fd] [Ac]2 [Ad] | [Ge]3 E3 | [EG]2 [EB] [DF]2 [DB] | E6 | G2 _G =GBc | B3 G3 | %18
w: |||||||
 [Ge]2 [Gd] [Gc]2 G | A6 | A2 G ABc | d3 d3 | e2 d d2 c | [DB]3 .A3 | G2 G G2 [FA] | [GB]3 [GB]3 | %26
w: ||||||||
 [Ge]2 [GB] [Ac]2 [B_d] | [EAc]6 | [C_Ge]2 [CGe] [CGd]2 [EGc] | [EGB]3 [G,E]3 | %30
w: ||||
 [B,EG]2 [EB] [DF]2 [DB] | E6 |] %32
w: ||
V:2
 [E,B,E]2 [E,B,E] [E,B,E]2 [E,B,] | [E,E]3 [E,E]3 | [E,E]2 [E,E] [E,E]2 [=E,B,] | [F,B,]6 | %4
 [B,,B,]2 [B,,B,] [B,,B,]2 [B,,B,] | [B,,B,]3 [B,,B,]3 | [B,,B,]2 [B,,B,] [B,,B,]2 [B,,B,] | %7
 [E,B,E]6 | [E,B,E]2 [E,B,E] [E,B,E]2 [E,B,] | [E,E]3 [E,G,]3 | [C,G,]2 [C,G,] [C,G,]2 [C,C] | %11
 [F,C]6 | [B,,B,]2 [B,,B,] [B,,B,]2 [B,,B,] | [E,B,]3 [E,G,]3 | [B,,B,]2 [B,,G,] [B,,A,]2 [B,,A,] | %15
 [E,G,]6 | G,2 _G, =G,B,C | B,3 G,3 | [E,B,]2 [E,B,] [E,E]2 [=E,B,_D] | [F,B,D]6 | %20
 A,2 G, A,B,[K:treble]C | D3 D3 | [F,CF]2 [F,B,F][K:bass] [F,B,F]2 [F,=A,E] | z3 .F3 | %24
 [E,B,E]2 [E,B,E] [E,B,E]2 [E,B,] | [E,E]3 [E,E]3 | [E,B,]2 [E,E] [E,E]2 [E,E] | A,6 | %28
 =A,,2 A,, A,,2 A,, | B,,3 C,3 | B,,2 [B,,G,] [B,,A,]2 [B,,A,] | [E,G,]6 |] %32
V:3
 x6 | x6 | x6 | x6 | x6 | x6 | x6 | x6 | x6 | x6 | x6 | x6 | x6 | x6 | x6 | x6 | x6 | x6 | x6 | %19
 x6 | x5[K:treble] x | x6 | x3[K:bass] x3 | [B,,B,]6 | x6 | x6 | x6 | x6 | x6 | x6 | x6 | x6 |] %32

